**harm	**harte	**silbe	**silbe	**rhyme	**timestamp	**phrase	**leadinstrument	**kern
*M4/4	*M4/4	*	*	*	*	*	*	*
*	*	*	*	*	*	*	*	*
*	*	*	*	*	*	*	*	*
*e:	*e:	*	*	*	*e:	*e:	*e:	*e:
*	*	*	*	*	*	*	*	*
*	*	*	*	*	*	*	*	*
1r;	N	.	.	.	.	.	r	1r;
1r;	N	.	.	.	.	.	r	1r;
=1	=1	=1	=1	=1	=1	=1	=1	=1
*>Letter>A	*>Letter>A	*>Letter>A	*>Letter>A	*>Letter>A	*>Letter>A	*>Letter>A	*>Letter>A	*>Letter>A
*>Label>Intro	*>Label>Intro	*>Label>Intro	*>Label>Intro	*>Label>Intro	*>Label>Intro	*>Label>Intro	*>Label>Intro	*>Label>Intro
!Shuffle	!Shuffle	!	!	!	!	!	!	!
1i	E:min	.	.	.	11.435	newline	guitar	1E 1g 1b
=2	=2	=2	=2	=2	=2	=2	=2	=2
1ic	A:maj/5	.	.	.	.	.	guitar	1e 1g 1B
=3	=3	=3	=3	=3	=3	=3	=3	=3
1i	E:min	.	.	.	.	.	guitar	1E 1g 1b
=4	=4	=4	=4	=4	=4	=4	=4	=4
1i	E:min	.	.	.	.	.	guitar	1E 1g 1b
=5	=5	=5	=5	=5	=5	=5	=5	=5
1i	E:min	.	.	.	15.12	newline	guitar	1E 1g 1b
=6	=6	=6	=6	=6	=6	=6	=6	=6
1ic	A:maj/5	.	.	.	.	.	guitar	1e 1g 1B
=7	=7	=7	=7	=7	=7	=7	=7	=7
1i	E:min	.	.	.	.	.	guitar	1E 1g 1b
=8	=8	=8	=8	=8	=8	=8	=8	=8
1i	E:min	.	.	.	.	.	guitar	1E 1g 1b
=9	=9	=9	=9	=9	=9	=9	=9	=9
1i	E:min	.	.	.	18.82	newline	guitar	1E 1g 1b
=10	=10	=10	=10	=10	=10	=10	=10	=10
1ic	A:maj/5	.	.	.	.	.	guitar	1e 1g 1B
=11	=11	=11	=11	=11	=11	=11	=11	=11
1i	E:min	.	.	.	.	.	guitar	1E 1g 1b
=12	=12	=12	=12	=12	=12	=12	=12	=12
1i	E:min	.	.	.	.	.	guitar	1E 1g 1b
.	.	.	.	.	.	.	.	.
.	.	Well	.	.	.	.	.	.
.	.	we	.	.	.	.	.	.
.	.	got	.	.	.	.	.	.
=13	=13	=13	=13	=13	=13	=13	=13	=13
*>Letter>A	*>Letter>A	*>Letter>A	*>Letter>A	*>Letter>A	*>Letter>A	*>Letter>A	*>Letter>A	*>Letter>A
*>Label>Verse	*>Label>Verse	*>Label>Verse	*>Label>Verse	*>Label>Verse	*>Label>Verse	*>Label>Verse	*>Label>Verse	*>Label>Verse
1i	E:min	_	.	.	22.505	newline	voice	1E 1g 1b
.	.	no	.	.	.	.	.	.
.	.	choice.	.	A	.	.	.	.
.	.	_	.	.	.	.	.	.
=14	=14	=14	=14	=14	=14	=14	=14	=14
1ic	A:maj/5	.	.	.	.	.	voice	1e 1g 1B
.	.	.	.	.	.	.	.	.
.	.	All	.	.	.	.	.	.
.	.	the	.	.	.	.	.	.
.	.	girls	.	.	.	.	.	.
=15	=15	=15	=15	=15	=15	=15	=15	=15
1i	E:min	_	.	.	.	.	voice	1E 1g 1b
.	.	and	.	.	.	.	.	.
.	.	boys	.	A	.	.	.	.
.	.	_	.	.	.	.	.	.
=16	=16	=16	=16	=16	=16	=16	=16	=16
1i	E:min	.	.	.	.	.	voice	1E 1g 1b
.	.	.	.	.	.	.	.	.
.	.	ma-	.	.	.	.	.	.
.	.	-kin'	.	.	.	.	.	.
.	.	all	.	.	.	.	.	.
=17	=17	=17	=17	=17	=17	=17	=17	=17
1i	E:min	_	.	.	29.705	newline	voice	1E 1g 1b
.	.	the	.	.	.	.	.	.
.	.	noise|	.	A	.	.	.	.
.	.	_	.	.	.	.	.	.
.	.	_	.	.	.	.	.	.
=18	=18	=18	=18	=18	=18	=18	=18	=18
1ic	A:maj/5	.	.	.	.	.	voice	1e 1g 1B
.	.	.	.	.	.	.	.	.
.	.	'cause	.	.	.	.	.	.
.	.	they	.	.	.	.	.	.
.	.	found	.	.	.	.	.	.
=19	=19	=19	=19	=19	=19	=19	=19	=19
1i	E:min	_	.	.	.	.	voice	1E 1g 1b
.	.	new	.	.	.	.	.	.
.	.	_	.	.	.	.	.	.
.	.	toys.	.	A	.	.	.	.
.	.	_	.	.	.	.	.	.
.	.	.	.	.	.	.	.	.
=20	=20	=20	=20	=20	=20	=20	=20	=20
1i	E:min	.	.	.	.	.	voice	1E 1g 1b
.	.	.	.	.	.	.	.	.
.	.	Well	.	.	.	.	.	.
.	.	we	.	.	.	.	.	.
=21	=21	=21	=21	=21	=21	=21	=21	=21
*>Letter>C	*>Letter>C	*>Letter>C	*>Letter>C	*>Letter>C	*>Letter>C	*>Letter>C	*>Letter>C	*>Letter>C
*>Label>Prechorus	*>Label>Prechorus	*>Label>Prechorus	*>Label>Prechorus	*>Label>Prechorus	*>Label>Prechorus	*>Label>Prechorus	*>Label>Prechorus	*>Label>Prechorus
1-VI	C:maj	can't	.	.	36.815	newline	voice	1C- 1e- 1g-
.	.	sa-	.	.	.	.	.	.
.	.	-lute	.	B	.	.	.	.
.	.	ya,	.	.	.	.	.	.
.	.	.	.	.	.	.	.	.
.	.	Can't	.	.	.	.	.	.
=22	=22	=22	=22	=22	=22	=22	=22	=22
2.-VI	C:maj	find	.	.	.	.	voice	2.C- 2.e- 2.g-
.	.	a	.	.	.	.	.	.
.	.	flag.	.	C	.	.	.	.
.	.	_	.	.	.	.	.	.
4-VII	D:maj	.	.	.	.	.	voice	4D 4f# 4a
.	.	If	.	.	.	.	.	.
=23	=23	=23	=23	=23	=23	=23	=23	=23
*g:	*g:	*	*	*	*	*	*	*g:
1-VI	E-:maj	that	.	.	.	.	voice	1E-- 1g- 1b--
.	.	don't	.	.	.	.	.	.
.	.	suit	.	B	.	.	.	.
.	.	ya:	.	.	.	.	.	.
.	.	.	.	.	.	.	.	.
=24	=24	=24	=24	=24	=24	=24	=24	=24
1-VI	E-:maj	that's	.	.	.	.	voice	1E-- 1g- 1b--
.	.	a	.	.	.	.	.	.
.	.	drag.	.	C	.	.	.	.
.	.	.	.	.	.	.	.	.
=25	=25	=25	=25	=25	=25	=25	=25	=25
*>Letter>B	*>Letter>B	*>Letter>B	*>Letter>B	*>Letter>B	*>Letter>B	*>Letter>B	*>Letter>B	*>Letter>B
*>Label>Chorus	*>Label>Chorus	*>Label>Chorus	*>Label>Chorus	*>Label>Chorus	*>Label>Chorus	*>Label>Chorus	*>Label>Chorus	*>Label>Chorus
1i	G:min	School's-	.	.	43.875	newline	voice	1G 1b- 1dd
=26	=26	=26	=26	=26	=26	=26	=26	=26
!Tonic pedal G	!Tonic pedal G	!	!	!	!	!	!	!
2-III	B-:maj	-out	.	.	.	.	voice	2B-- 2dd- 2ff-
.	.	.	.	.	.	.	.	.
2IV	C:maj	for	.	.	.	.	voice	2C 2e 2g
.	.	.	.	.	.	.	.	.
=27	=27	=27	=27	=27	=27	=27	=27	=27
1i	G:min	su-	.	.	.	.	voice	1G 1b- 1dd
.	.	-mmer.	.	.	.	.	.	.
.	.	.	.	.	.	.	.	.
.	.	.	.	.	.	.	.	.
=28	=28	=28	=28	=28	=28	=28	=28	=28
1i	G:min	.	.	.	.	.	voice	1G 1b- 1dd
=29	=29	=29	=29	=29	=29	=29	=29	=29
1i	G:min	Shool's	.	.	50.945	newline	voice	1G 1b- 1dd
=30	=30	=30	=30	=30	=30	=30	=30	=30
!Tonic pedal G	!Tonic pedal G	!	!	!	!	!	!	!
2-III	B-:maj	out	.	.	.	.	voice	2B-- 2dd- 2ff-
.	.	.	.	.	.	.	.	.
2IV	C:maj	for-	.	.	.	.	voice	2C 2e 2g
.	.	.	.	.	.	.	.	.
=31	=31	=31	=31	=31	=31	=31	=31	=31
1i	G:min	-e-	.	.	.	.	voice	1G 1b- 1dd
.	.	-ver.	.	.	.	.	.	.
.	.	.	.	.	.	.	.	.
.	.	.	.	.	.	.	.	.
=32	=32	=32	=32	=32	=32	=32	=32	=32
1i	G:min	.	.	.	.	.	voice	1G 1b- 1dd
=33	=33	=33	=33	=33	=33	=33	=33	=33
1i	G:min	School's	.	.	58.315	newline	voice	1G 1b- 1dd
.	.	been	.	.	.	.	.	.
=34	=34	=34	=34	=34	=34	=34	=34	=34
!Tonic pedal G	!Tonic pedal G	!	!	!	!	!	!	!
2-III	B-:maj	blown	.	.	.	.	voice	2B-- 2dd- 2ff-
.	.	.	.	.	.	.	.	.
2IV	C:maj	to	.	.	.	.	voice	2C 2e 2g
.	.	.	.	.	.	.	.	.
=35	=35	=35	=35	=35	=35	=35	=35	=35
1i	G:min	pie-	.	.	.	.	voice	1G 1b- 1dd
.	.	-ces.	.	.	.	.	.	.
.	.	.	.	.	.	.	.	.
.	.	.	.	.	.	.	.	.
=36	=36	=36	=36	=36	=36	=36	=36	=36
1i	G:min	.	.	.	.	.	voice	1G 1b- 1dd
=37	=37	=37	=37	=37	=37	=37	=37	=37
*>Letter>D	*>Letter>D	*>Letter>D	*>Letter>D	*>Letter>D	*>Letter>D	*>Letter>D	*>Letter>D	*>Letter>D
*>Label>Interlude	*>Label>Interlude	*>Label>Interlude	*>Label>Interlude	*>Label>Interlude	*>Label>Interlude	*>Label>Interlude	*>Label>Interlude	*>Label>Interlude
*G:	*G:	*	*	*	*G:	*G:	*G:	*G:
1II	A:maj	.	.	.	65.315	newline	voice	1A 1cc# 1ee
=38	=38	=38	=38	=38	=38	=38	=38	=38
!Pedal A	!Pedal A	!	!	!	!	!	!	!
1I	G:maj	.	.	.	.	.	voice	1G 1b 1dd
=39	=39	=39	=39	=39	=39	=39	=39	=39
1-VII	F:maj	.	.	.	.	.	voice	1F 1a 1cc
=40	=40	=40	=40	=40	=40	=40	=40	=40
1-VII	F:maj	.	.	.	.	.	voice	1F 1a 1cc
=41	=41	=41	=41	=41	=41	=41	=41	=41
*>Letter>E	*>Letter>E	*>Letter>E	*>Letter>E	*>Letter>E	*>Letter>E	*>Letter>E	*>Letter>E	*>Letter>E
*>Label>Bridge	*>Label>Bridge	*>Label>Bridge	*>Label>Bridge	*>Label>Bridge	*>Label>Bridge	*>Label>Bridge	*>Label>Bridge	*>Label>Bridge
1IV	C:maj	No	.	.	72.92	newline	voice	1C 1e 1g
.	.	more	.	.	.	.	.	.
=42	=42	=42	=42	=42	=42	=42	=42	=42
1IV	C:maj	pen-	.	.	.	.	voice	1C 1e 1g
.	.	-cils;	.	.	.	.	.	.
.	.	.	.	.	.	.	.	.
=43	=43	=43	=43	=43	=43	=43	=43	=43
1IV	C:maj	No	.	.	.	.	voice	1C 1e 1g
.	.	more	.	.	.	.	.	.
=44	=44	=44	=44	=44	=44	=44	=44	=44
1IV	C:maj	bo-	.	(D	.	.	voice	1C 1e 1g
.	.	-oks;	.	D)	.	.	.	.
.	.	.	.	.	.	.	.	.
=45	=45	=45	=45	=45	=45	=45	=45	=45
1V	D:maj	No	No	.	80.005	newline	voice	1D 1f# 1a
.	.	more	more	.	.	.	.	.
=46	=46	=46	=46	=46	=46	=46	=46	=46
1V	D:maj	tea-	tea-	.	.	.	voice	1D 1f# 1a
.	.	-chers'	-chers'	.	.	.	.	.
.	.	.	.	.	.	.	.	.
=47	=47	=47	=47	=47	=47	=47	=47	=47
1V	D:maj	dir-	dir-	.	.	.	voice	1D 1f# 1a
.	.	-ty	-ty	.	.	.	.	.
=48	=48	=48	=48	=48	=48	=48	=48	=48
1V	D:maj	looks.	lo-	D	.	.	voice	1D 1f# 1a
.	.	.	.	.	.	.	.	.
.	.	Yeow!	.	.	.	.	.	.
.	.	_	-oks.	.	.	.	.	.
.	.	.	.	.	.	.	.	.
=49	=49	=49	=49	=49	=49	=49	=49	=49
*>Letter>A	*>Letter>A	*>Letter>A	*>Letter>A	*>Letter>A	*>Letter>A	*>Letter>A	*>Letter>A	*>Letter>A
*>Label>Solo	*>Label>Solo	*>Label>Solo	*>Label>Solo	*>Label>Solo	*>Label>Solo	*>Label>Solo	*>Label>Solo	*>Label>Solo
*e:	*e:	*	*	*	*e:	*e:	*e:	*e:
1i	E:min	.	.	.	87	newline	guitar	1E 1g 1b
=50	=50	=50	=50	=50	=50	=50	=50	=50
1ic	A:maj/5	.	.	.	.	.	guitar	1e 1g 1B
=51	=51	=51	=51	=51	=51	=51	=51	=51
1i	E:min	.	.	.	.	.	guitar	1E 1g 1b
=52	=52	=52	=52	=52	=52	=52	=52	=52
1i	E:min	.	.	.	.	.	guitar	1E 1g 1b
=53	=53	=53	=53	=53	=53	=53	=53	=53
1i	E:min	.	.	.	94.4	newline	guitar	1E 1g 1b
=54	=54	=54	=54	=54	=54	=54	=54	=54
1ic	A:maj/5	.	.	.	.	.	guitar	1e 1g 1B
=55	=55	=55	=55	=55	=55	=55	=55	=55
1i	E:min	.	.	.	.	.	guitar	1E 1g 1b
=56	=56	=56	=56	=56	=56	=56	=56	=56
1i	E:min	.	.	.	.	.	guitar	1E 1g 1b
.	.	.	.	.	.	.	.	.
.	.	Well	.	.	.	.	.	.
.	.	we	.	.	.	.	.	.
.	.	got	.	.	.	.	.	.
=57	=57	=57	=57	=57	=57	=57	=57	=57
*>Letter>A	*>Letter>A	*>Letter>A	*>Letter>A	*>Letter>A	*>Letter>A	*>Letter>A	*>Letter>A	*>Letter>A
*>Label>Verse	*>Label>Verse	*>Label>Verse	*>Label>Verse	*>Label>Verse	*>Label>Verse	*>Label>Verse	*>Label>Verse	*>Label>Verse
1i	E:min	_	.	.	101.575	newline	voice	1E 1g 1b
.	.	no	.	.	.	.	.	.
.	.	class;	.	.	.	.	.	.
.	.	_	.	.	.	.	.	.
=58	=58	=58	=58	=58	=58	=58	=58	=58
1ic	A:maj/5	.	.	.	.	.	voice	1e 1g 1B
.	.	.	.	.	.	.	.	.
.	.	and	.	.	.	.	.	.
.	.	we	.	.	.	.	.	.
.	.	got	.	.	.	.	.	.
=59	=59	=59	=59	=59	=59	=59	=59	=59
1i	E:min	_	.	.	.	.	voice	1E 1g 1b
.	.	no	.	.	.	.	.	.
.	.	princ-	.	.	.	.	.	.
.	.	-i-	.	.	.	.	.	.
.	.	-ples;	.	.	.	.	.	.
=60	=60	=60	=60	=60	=60	=60	=60	=60
1i	E:min	.	.	.	.	.	voice	1E 1g 1b
.	.	.	.	.	.	.	.	.
.	.	and	.	.	.	.	.	.
.	.	we	.	.	.	.	.	.
.	.	got	.	.	.	.	.	.
=61	=61	=61	=61	=61	=61	=61	=61	=61
1i	E:min	_	.	.	105.11	newline	voice	1E 1g 1b
.	.	no	.	.	.	.	.	.
.	.	in-	.	.	.	.	.	.
.	.	-no-	.	.	.	.	.	.
.	.	-cence.	.	.	.	.	.	.
=62	=62	=62	=62	=62	=62	=62	=62	=62
1ic	A:maj/5	.	.	.	.	.	voice	1e 1g 1B
.	.	.	.	.	.	.	.	.
.	.	We	.	.	.	.	.	.
.	.	can't	.	.	.	.	.	.
.	.	e-	.	.	.	.	.	.
.	.	-ven	.	.	.	.	.	.
=63	=63	=63	=63	=63	=63	=63	=63	=63
1i	E:min	think	.	.	.	.	voice	1E 1g 1b
.	.	of	.	.	.	.	.	.
.	.	a	.	.	.	.	.	.
.	.	word	.	.	.	.	.	.
.	.	that	.	.	.	.	.	.
.	.	rhymes.	.	.	.	.	.	.
=64	=64	=64	=64	=64	=64	=64	=64	=64
1i	E:min	_	.	.	.	.	voice	1E 1g 1b
.	.	.	.	.	.	.	.	.
.	.	.	.	.	.	.	.	.
=65	=65	=65	=65	=65	=65	=65	=65	=65
*>Letter>B	*>Letter>B	*>Letter>B	*>Letter>B	*>Letter>B	*>Letter>B	*>Letter>B	*>Letter>B	*>Letter>B
*>Label>Chorus	*>Label>Chorus	*>Label>Chorus	*>Label>Chorus	*>Label>Chorus	*>Label>Chorus	*>Label>Chorus	*>Label>Chorus	*>Label>Chorus
*g:	*g:	*	*	*	*g:	*g:	*g:	*g:
1i	G:min	School's-	.	.	115.825	newline	voice	1G 1b- 1dd
=66	=66	=66	=66	=66	=66	=66	=66	=66
!Tonic pedal G	!Tonic pedal G	!	!	!	!	!	!	!
2-III	B-:maj	-out	.	.	.	.	voice	2B-- 2dd- 2ff-
.	.	.	.	.	.	.	.	.
2IV	C:maj	for	.	.	.	.	voice	2C 2e 2g
.	.	.	.	.	.	.	.	.
=67	=67	=67	=67	=67	=67	=67	=67	=67
1i	G:min	su-	.	.	.	.	voice	1G 1b- 1dd
.	.	-mmer.	.	.	.	.	.	.
.	.	.	.	.	.	.	.	.
.	.	.	.	.	.	.	.	.
=68	=68	=68	=68	=68	=68	=68	=68	=68
1i	G:min	.	.	.	.	.	voice	1G 1b- 1dd
=69	=69	=69	=69	=69	=69	=69	=69	=69
1i	G:min	Shool's	.	.	122.895	newline	voice	1G 1b- 1dd
=70	=70	=70	=70	=70	=70	=70	=70	=70
!Tonic pedal G	!Tonic pedal G	!	!	!	!	!	!	!
2-III	B-:maj	out	.	.	.	.	voice	2B-- 2dd- 2ff-
.	.	.	.	.	.	.	.	.
2IV	C:maj	for-	.	.	.	.	voice	2C 2e 2g
.	.	.	.	.	.	.	.	.
=71	=71	=71	=71	=71	=71	=71	=71	=71
1i	G:min	-e-	.	.	.	.	voice	1G 1b- 1dd
.	.	-ver.	.	.	.	.	.	.
.	.	.	.	.	.	.	.	.
=72	=72	=72	=72	=72	=72	=72	=72	=72
1i	G:min	.	.	.	.	.	voice	1G 1b- 1dd
.	.	.	.	.	.	.	.	.
.	.	My-	.	.	.	.	.	.
=73	=73	=73	=73	=73	=73	=73	=73	=73
1i	G:min	-school's-	.	.	129.965	newline	voice	1G 1b- 1dd
.	.	-been-	.	.	.	.	.	.
=74	=74	=74	=74	=74	=74	=74	=74	=74
!Pedal notes of Tonic Gm triad	!Pedal notes of Tonic Gm triad	!	!	!	!	!	!	!
1-VII	F:maj	-blown-	.	.	.	.	voice	1F 1a 1cc
.	.	.	.	.	.	.	.	.
.	.	-to-	.	.	.	.	.	.
=75	=75	=75	=75	=75	=75	=75	=75	=75
1IV	C:maj	-pie-	.	.	.	.	voice	1C 1e 1g
.	.	-ces.	.	.	.	.	.	.
.	.	_	.	.	.	.	.	.
.	.	.	.	.	.	.	.	.
=76	=76	=76	=76	=76	=76	=76	=76	=76
1IV	C:maj	.	.	.	.	.	voice	1C 1e 1g
=77	=77	=77	=77	=77	=77	=77	=77	=77
*>Letter>E	*>Letter>E	*>Letter>E	*>Letter>E	*>Letter>E	*>Letter>E	*>Letter>E	*>Letter>E	*>Letter>E
*>Label>Bridge	*>Label>Bridge	*>Label>Bridge	*>Label>Bridge	*>Label>Bridge	*>Label>Bridge	*>Label>Bridge	*>Label>Bridge	*>Label>Bridge
*G:	*G:	*	*	*	*G:	*G:	*G:	*G:
1IV	C:maj	No	.	.	137.415	newline	voice	1C 1e 1g
.	.	more	.	.	.	.	.	.
=78	=78	=78	=78	=78	=78	=78	=78	=78
1IV	C:maj	pen-	.	.	.	.	voice	1C 1e 1g
.	.	-cils;	.	.	.	.	.	.
.	.	.	.	.	.	.	.	.
=79	=79	=79	=79	=79	=79	=79	=79	=79
1IV	C:maj	No	.	.	.	.	voice	1C 1e 1g
.	.	more	.	.	.	.	.	.
=80	=80	=80	=80	=80	=80	=80	=80	=80
1IV	C:maj	bo-	.	(D	.	.	voice	1C 1e 1g
.	.	-oks;	.	D)	.	.	.	.
.	.	.	.	.	.	.	.	.
=81	=81	=81	=81	=81	=81	=81	=81	=81
1V	D:maj	No	.	.	144.54	newline	voice	1D 1f# 1a
.	.	more	.	.	.	.	.	.
=82	=82	=82	=82	=82	=82	=82	=82	=82
1V	D:maj	tea-	.	.	.	.	voice	1D 1f# 1a
.	.	-chers'	.	.	.	.	.	.
.	.	.	.	.	.	.	.	.
=83	=83	=83	=83	=83	=83	=83	=83	=83
1V	D:maj	dir-	.	.	.	.	voice	1D 1f# 1a
.	.	-ty	.	.	.	.	.	.
=84	=84	=84	=84	=84	=84	=84	=84	=84
1V	D:maj	lo-	.	(D	.	.	voice	1D 1f# 1a
.	.	-oks.	.	D)	.	.	.	.
.	.	.	.	.	.	.	.	.
=85	=85	=85	=85	=85	=85	=85	=85	=85
1IV	C:maj	Out	Out	.	151.55	newline	voice	1C 1e 1g
.	.	for	for	.	.	.	.	.
=86	=86	=86	=86	=86	=86	=86	=86	=86
1IV	C:maj	sum-	sum-	.	.	.	voice	1C 1e 1g
.	.	-mer;	-mer;	.	.	.	.	.
.	.	.	.	.	.	.	.	.
=87	=87	=87	=87	=87	=87	=87	=87	=87
1IV	C:maj	Out	Out	.	.	.	voice	1C 1e 1g
.	.	for	for	.	.	.	.	.
=88	=88	=88	=88	=88	=88	=88	=88	=88
1IV	C:maj	fa-	fa-	(E	.	.	voice	1C 1e 1g
.	.	-ll;	-ll;	E)	.	.	.	.
.	.	.	.	.	.	.	.	.
=89	=89	=89	=89	=89	=89	=89	=89	=89
1V	D:maj	We-	We-	.	158.565	newline	voice	1D 1f# 1a
.	.	-might-	-might-	.	.	.	.	.
=90	=90	=90	=90	=90	=90	=90	=90	=90
1V	D:maj	-not-	-not-	.	.	.	voice	1D 1f# 1a
.	.	-go-	-go-	.	.	.	.	.
.	.	.	.	.	.	.	.	.
=91	=91	=91	=91	=91	=91	=91	=91	=91
1V	D:maj	-back-	-back-	.	.	.	voice	1D 1f# 1a
.	.	-at-	-at-	.	.	.	.	.
=92	=92	=92	=92	=92	=92	=92	=92	=92
1V	D:maj	-all.	-a-	E	.	.	voice	1D 1f# 1a
.	.	.	-ll.	.	.	.	.	.
.	.	.	.	.	.	.	.	.
=93	=93	=93	=93	=93	=93	=93	=93	=93
*>Letter>B	*>Letter>B	*>Letter>B	*>Letter>B	*>Letter>B	*>Letter>B	*>Letter>B	*>Letter>B	*>Letter>B
*>Label>Chorus	*>Label>Chorus	*>Label>Chorus	*>Label>Chorus	*>Label>Chorus	*>Label>Chorus	*>Label>Chorus	*>Label>Chorus	*>Label>Chorus
*g:	*g:	*	*	*	*g:	*g:	*g:	*g:
1i	G:min	Shool's	Shool's	.	165.45	newline	voice	1G 1b- 1dd
=94	=94	=94	=94	=94	=94	=94	=94	=94
!Tonic pedal G	!Tonic pedal G	!	!	!	!	!	!	!
2-III	B-:maj	out	out	.	.	.	voice	2B-- 2dd- 2ff-
.	.	.	.	.	.	.	.	.
2IV	C:maj	for-	for-	.	.	.	voice	2C 2e 2g
.	.	.	.	.	.	.	.	.
=95	=95	=95	=95	=95	=95	=95	=95	=95
1i	G:min	-e-	-e-	.	.	.	voice	1G 1b- 1dd
.	.	-ver.	-ver.	.	.	.	.	.
.	.	.	.	.	.	.	.	.
.	.	.	.	.	.	.	.	.
=96	=96	=96	=96	=96	=96	=96	=96	=96
1i	G:min	.	.	.	.	.	voice	1G 1b- 1dd
=97	=97	=97	=97	=97	=97	=97	=97	=97
1i	G:min	School's-	School's-	.	172.42	newline	voice	1G 1b- 1dd
=98	=98	=98	=98	=98	=98	=98	=98	=98
!Tonic pedal G	!Tonic pedal G	!	!	!	!	!	!	!
2-III	B-:maj	-out	-out	.	.	.	voice	2B-- 2dd- 2ff-
.	.	.	.	.	.	.	.	.
2IV	C:maj	for	for	.	.	.	voice	2C 2e 2g
.	.	.	.	.	.	.	.	.
=99	=99	=99	=99	=99	=99	=99	=99	=99
1i	G:min	su-	su-	.	.	.	voice	1G 1b- 1dd
.	.	-mmer.	-mmer.	.	.	.	.	.
.	.	.	.	.	.	.	.	.
.	.	.	.	.	.	.	.	.
=100	=100	=100	=100	=100	=100	=100	=100	=100
1i	G:min	.	.	.	.	.	voice	1G 1b- 1dd
=101	=101	=101	=101	=101	=101	=101	=101	=101
1i	G:min	School's-	School's-	.	179.405	newline	voice	1G 1b- 1dd
=102	=102	=102	=102	=102	=102	=102	=102	=102
!Tonic pedal G	!Tonic pedal G	!	!	!	!	!	!	!
2-III	B-:maj	-out	-out	.	.	.	voice	2B-- 2dd- 2ff-
.	.	.	.	.	.	.	.	.
2IV	C:maj	with	with	.	.	.	voice	2C 2e 2g
.	.	.	.	.	.	.	.	.
=103	=103	=103	=103	=103	=103	=103	=103	=103
1i	G:min	fe-	fe-	.	.	.	voice	1G 1b- 1dd
.	.	-ver.	-ver.	.	.	.	.	.
.	.	.	.	.	.	.	.	.
.	.	.	.	.	.	.	.	.
=104	=104	=104	=104	=104	=104	=104	=104	=104
1i	G:min	.	.	.	.	.	voice	1G 1b- 1dd
=105	=105	=105	=105	=105	=105	=105	=105	=105
1i	G:min	School's-	.	.	186.32	newline	voice	1G 1b- 1dd
.	.	.	.	.	.	.	.	.
=106	=106	=106	=106	=106	=106	=106	=106	=106
!Pedal notes of Tonic Gm triad	!Pedal notes of Tonic Gm triad	!	!	!	!	!	!	!
1-VII	F:maj	-out-	.	.	.	.	voice	1F 1a 1cc
.	.	-com-	.	.	.	.	.	.
.	.	.	.	.	.	.	.	.
=107	=107	=107	=107	=107	=107	=107	=107	=107
1IV;	C:maj	-plet-	.	.	.	.	voice	1C; 1e; 1g;
.	.	-ely.	.	.	.	.	.	.
.	.	_	.	.	.	.	.	.
.	.	_	.	.	.	.	.	.
=108	=108	=108	=108	=108	=108	=108	=108	=108
1r	N	_	.	.	.	.	r	1r
1r;	N	.	.	.	.	.	r	1r;
*-	*-	*-	*-	*-	*-	*-	*-	*-
!!!BillboardChartDate: 1972/07/29
!!!BillboardPeak: 7
!!!BillboardWeeksOnChart: 13
!!!COC: Alice Cooper
"!!!EMD: Added comment ""Shuffle"" at top - Nat Condit-Schultz 2017-01-27"
!!!EMD: Changed key up one half step; Also added key changes. - Nat Condit-Schultz 2017-01-27
"!!!EMD: Reinterpreted chords in chorus as 1Gm 2B- 2C 1Gm 1Gm with tonic pedal; placed ""Tonic pedal"" in a comment. Nat Condit-Schultz 2017-01-27"
!!!EMD: Shortened to match single version of song. Had to remove timestamps - Nat Condit-Schultz 2017-01-27
!!!ENC: Nathaniel Condit-Schultz
!!!EST: Awating manual error checking and editing.
!!!OTL: School's Out
!!!RDF**harte: Chris Harte's syntax, used by MIREX
!!!RDF**harmony: **recip + pitch class of root + harmonic quality
!!!RDF**leadinstrument: original McGill primary instrumentation annotation
!!!RDF**phrase: newline = linebreak in original McGill transcription
!!!RDF**timestamp: McGill audio timestamp in seconds
!!!RDT: 2017/01/12/
!!!SampleActualRank: 7
!!!SampleID#: 0195
!!!SampleTargetRank: 8
